X: 42192
T: Watson's Scotch Measure
R: reel
M: 4/4
K: Fmajor
|F2F2c2F2|A2G4CD|F2F2c2F2|A3fc3f|
defc ABcA|dcBA G2FD|F2f2 cdcB|A2F2F2:|
|:cd|fefg fgaf|gfga gagf|cdfg fgag|fgfc ABcA|
defc ABcA|fdcA G2FD|F2f2 cdcB|A2F2F2:|

